src/static/logos/apportable.svg

<?xml version="1.0" encoding="UTF-8" standalone="no"?>
<svg width="256px" height="286px" viewBox="0 0 256 286" version="1.1" xmlns="http://www.w3.org/2000/svg" xmlns:xlink="http://www.w3.org/1999/xlink" preserveAspectRatio="xMidYMid">
    <g>
        <path d="M126.99868,240.930377 L88.4413656,37.8473888 C87.571623,33.3084793 83.8756948,28.5717272 80.0641194,27.1266164 L9.98293597,0.698865928 C4.62780646,-1.30249784 0.210278607,1.12704691 0.210278607,6.29484723 L1.11620933e-05,263.579048 C-0.0105022101,277.179529 7.40715977,286.890062 16.2766229,284.860025 L121.132219,260.734703 C126.280904,259.564851 128.817494,250.561582 127.001548,240.930377 L126.99868,240.930377 Z M106.294027,217.272422 L26.2031578,225.781563 C19.876975,226.44964 14.4635441,220.182715 14.2809937,211.921116 L10.1626191,32.1176009 C10.0641757,27.9600401 13.6788642,25.8430292 18.1384455,27.2776267 L77.9901178,46.7359671 C81.3190338,47.8159772 84.4892934,51.6007912 85.1487686,55.2756927 L111.715104,204.690783 C112.85915,211.145993 110.485996,216.794542 106.290204,217.273378 L106.294027,217.272422 Z M80.2476256,79.3197749 L77.5867866,63.0536766 C77.2321993,60.8917449 75.5605731,58.7594419 73.8602741,58.2634019 L60.9641894,54.6028368 C59.1176589,54.0790797 57.8388506,55.4639776 58.1074194,57.7033259 L60.2206073,74.6107399 C60.521672,77.0383732 62.3423969,79.3895455 64.282592,79.8215495 L77.7033895,82.832197 C79.4973531,83.2460416 80.6184609,81.6594781 80.2457141,79.3197749 L80.2476256,79.3197749 Z M136.408148,96.1488166 L134.734611,78.7883718 C134.506184,76.4716068 132.703618,74.1921166 130.694609,73.602412 L115.502786,69.3024427 C113.325562,68.6649501 111.639599,70.1100609 111.757158,72.4851272 L112.653662,90.5776851 C112.783645,93.1582401 114.765894,95.7101222 117.069278,96.2424812 L133.023798,99.8294526 C135.142721,100.306377 136.645177,98.6624683 136.406237,96.1488166 L136.408148,96.1488166 Z M176.919995,128.826289 L174.95495,108.35293 C174.687337,105.63379 172.739496,103.119182 170.564183,102.702471 L154.187217,99.5733086 C151.820752,99.0954281 149.998116,101.007906 150.147214,103.839826 L151.210977,125.382682 C151.371544,128.498463 153.533476,131.289285 156.03757,131.591306 L173.31582,133.710228 C175.610602,133.968284 177.207679,131.789148 176.92095,128.826289 L176.919995,128.826289 Z M80.0908808,124.728941 L77.0047281,105.779066 C76.5966181,103.276883 74.8055218,100.971587 72.9771508,100.621779 L59.2552885,97.9590281 C57.2787746,97.5881928 55.936886,99.3812007 56.2561102,102.015278 L58.7210181,121.856879 C59.0937649,124.724162 61.0626328,127.276044 63.1175192,127.513073 L77.4701838,129.252558 C79.3625908,129.495322 80.5324424,127.440435 80.0927923,124.728941 L80.0908808,124.728941 Z M57.2778188,197.19666 L54.9218677,172.691901 C54.604555,169.427021 52.4646058,166.697367 50.1229911,166.490923 L32.3487017,165.015228 C29.7777043,164.808783 27.8097922,167.37309 27.9789619,170.795671 L29.2635049,196.878392 C29.4594359,200.653648 31.8536175,203.750314 34.5775366,203.738845 L53.4385264,203.706349 C55.9215938,203.700614 57.6228486,200.766428 57.2787746,197.19666 L57.2778188,197.19666 Z M255.969085,77.2992959 L254.46854,60.3307132 C254.256361,58.0961437 252.902047,56.2075597 251.403414,56.0469919 L240.064264,55.0291063 C238.431824,54.8886094 237.186467,56.6577232 237.283955,59.0423472 L238.114511,77.087117 C238.22538,79.71546 239.767978,81.8468073 241.507463,81.8448958 L253.523292,81.820046 C255.095519,81.8028423 256.191777,79.7861864 255.971952,77.2992959 L255.969085,77.2992959 Z M217.135555,170.482181 L213.493149,148.137442 C213.01718,145.186052 211.079853,142.679091 209.133923,142.530948 L194.484017,141.302795 C192.367006,141.137448 190.94101,143.487664 191.336695,146.604401 L194.26228,170.211701 C194.697151,173.61421 196.852393,176.405033 199.079316,176.387829 L214.436486,176.346731 C216.463655,176.346731 217.665047,173.699273 217.139378,170.482181 L217.135555,170.482181 Z M218.024413,109.755032 L216.350875,92.4012773 C216.132006,90.0720874 214.337086,87.7925972 212.318519,87.2067156 L197.134342,82.9067464 C194.951384,82.2759441 193.26351,83.7028954 193.381068,86.0894309 L194.261324,104.181989 C194.407556,106.762544 196.392672,109.323983 198.676941,109.861121 L214.643886,113.423243 C216.777145,113.8973 218.257619,112.262949 218.028236,109.755032 L218.024413,109.755032 Z M176.336025,188.630173 L172.685017,166.310284 C172.205225,163.350292 170.266942,160.827082 168.325791,160.65409 L153.668238,159.434539 C151.542626,159.261546 150.132878,161.62801 150.520917,164.752393 L153.461794,188.350135 C153.889019,191.743087 156.061464,194.53391 158.259715,194.53391 L173.618796,194.501414 C175.656479,194.496635 176.854047,191.849177 176.337936,188.630173 L176.336025,188.630173 Z" fill="#15637A"></path>
    </g>
</svg>

<svg width="256" height="286" xmlns="http://www.w3.org/2000/svg" preserveAspectRatio="xMidYMid"><path d="M126.999 240.93L88.44 37.847c-.87-4.539-4.565-9.275-8.377-10.72L9.983.699C4.628-1.302.21 1.127.21 6.295L0 263.579c-.01 13.6 7.407 23.311 16.277 21.281l104.855-24.125c5.149-1.17 7.685-10.173 5.87-19.805h-.003zm-20.705-23.658l-80.09 8.51c-6.327.668-11.74-5.6-11.923-13.86L10.163 32.117c-.099-4.158 3.516-6.275 7.975-4.84L77.99 46.736c3.329 1.08 6.5 4.865 7.159 8.54l26.566 149.415c1.144 6.455-1.229 12.104-5.425 12.582h.004zM80.248 79.32l-2.661-16.266c-.355-2.162-2.026-4.295-3.727-4.79l-12.896-3.661c-1.846-.524-3.125.861-2.857 3.1l2.114 16.908c.3 2.427 2.121 4.779 4.062 5.21l13.42 3.011c1.794.414 2.915-1.173 2.543-3.512h.002zm56.16 16.829l-1.673-17.36c-.229-2.317-2.031-4.597-4.04-5.187l-15.192-4.3c-2.177-.637-3.863.808-3.746 3.183l.897 18.093c.13 2.58 2.112 5.132 4.415 5.664l15.955 3.587c2.119.477 3.621-1.167 3.382-3.68h.002zm40.512 32.677l-1.965-20.473c-.268-2.72-2.216-5.234-4.39-5.65l-16.378-3.13c-2.366-.478-4.189 1.435-4.04 4.267l1.064 21.543c.16 3.115 2.322 5.906 4.827 6.208l17.278 2.12c2.295.257 3.892-1.922 3.605-4.885h-.001zm-96.83-4.097l-3.085-18.95c-.408-2.502-2.2-4.807-4.028-5.157l-13.722-2.663c-1.976-.37-3.318 1.422-2.999 4.056l2.465 19.842c.373 2.867 2.342 5.419 4.397 5.656l14.352 1.74c1.893.242 3.062-1.813 2.623-4.524h-.002zm-22.812 72.468l-2.356-24.505c-.317-3.265-2.457-5.995-4.799-6.201l-17.774-1.476c-2.571-.206-4.54 2.358-4.37 5.78l1.285 26.083c.195 3.776 2.59 6.872 5.314 6.86l18.86-.032c2.484-.005 4.185-2.94 3.84-6.51zM255.969 77.299l-1.5-16.968c-.213-2.235-1.567-4.123-3.066-4.284l-11.339-1.018c-1.632-.14-2.878 1.629-2.78 4.013l.83 18.045c.111 2.628 1.654 4.76 3.393 4.758l12.016-.025c1.573-.017 2.669-2.034 2.449-4.52h-.003zm-38.833 93.183l-3.643-22.345c-.476-2.95-2.413-5.458-4.36-5.606l-14.649-1.228c-2.117-.166-3.543 2.185-3.147 5.301l2.925 23.608c.435 3.402 2.59 6.193 4.817 6.176l15.357-.041c2.028 0 3.229-2.648 2.703-5.865h-.003zm.888-60.727l-1.673-17.354c-.219-2.329-2.014-4.608-4.032-5.194l-15.185-4.3c-2.183-.631-3.87.796-3.753 3.182l.88 18.093c.147 2.58 2.132 5.142 4.416 5.68l15.967 3.561c2.133.474 3.614-1.16 3.384-3.668h-.004zm-41.688 78.875l-3.651-22.32c-.48-2.96-2.418-5.483-4.36-5.656l-14.657-1.22c-2.125-.172-3.535 2.194-3.147 5.318l2.94 23.598c.428 3.393 2.6 6.184 4.799 6.184l15.359-.033c2.037-.004 3.235-2.652 2.719-5.87h-.002z" fill="#15637A"/></svg>
